icons/arrow-circle-downB.svg

<svg width="24" height="24" viewBox="0 0 24 24" fill="none" xmlns="http://www.w3.org/2000/svg">
<path d="M12 21C16.9706 21 21 16.9706 21 12C21 7.02944 16.9706 3 12 3C7.02944 3 3 7.02944 3 12C3 16.9706 7.02944 21 12 21Z" fill="black"/>
<path fill-rule="evenodd" clip-rule="evenodd" d="M12 3.75C7.44365 3.75 3.75 7.44365 3.75 12C3.75 16.5563 7.44365 20.25 12 20.25C16.5563 20.25 20.25 16.5563 20.25 12C20.25 7.44365 16.5563 3.75 12 3.75ZM2.25 12C2.25 6.61522 6.61522 2.25 12 2.25C17.3848 2.25 21.75 6.61522 21.75 12C21.75 17.3848 17.3848 21.75 12 21.75C6.61522 21.75 2.25 17.3848 2.25 12Z" fill="black"/>
<path fill-rule="evenodd" clip-rule="evenodd" d="M12 7.84998C12.4142 7.84998 12.75 8.18576 12.75 8.59998V14.6C12.75 15.0142 12.4142 15.35 12 15.35C11.5858 15.35 11.25 15.0142 11.25 14.6V8.59998C11.25 8.18576 11.5858 7.84998 12 7.84998Z" fill="white"/>
<path fill-rule="evenodd" clip-rule="evenodd" d="M8.56965 12.0696C8.86254 11.7768 9.33741 11.7768 9.63031 12.0696L11.95 14.3893L14.2697 12.0696C14.5626 11.7768 15.0374 11.7768 15.3303 12.0696C15.6232 12.3625 15.6232 12.8374 15.3303 13.1303L12.8303 15.6303C12.3374 16.1232 11.5625 16.1232 11.0696 15.6303L8.56965 13.1303C8.27675 12.8374 8.27675 12.3625 8.56965 12.0696Z" fill="white"/>
</svg>

<svg xmlns="http://www.w3.org/2000/svg" fill="none" viewBox="0 0 24 24">
  <path fill="#000" d="M12 21a9 9 0 1 0 0-18 9 9 0 0 0 0 18Z"/>
  <path fill="#000" fill-rule="evenodd" d="M12 3.75a8.25 8.25 0 1 0 0 16.5 8.25 8.25 0 0 0 0-16.5ZM2.25 12c0-5.385 4.365-9.75 9.75-9.75s9.75 4.365 9.75 9.75-4.365 9.75-9.75 9.75S2.25 17.385 2.25 12Z" clip-rule="evenodd"/>
  <path fill="#fff" fill-rule="evenodd" d="M12 7.85a.75.75 0 0 1 .75.75v6a.75.75 0 0 1-1.5 0v-6a.75.75 0 0 1 .75-.75Z" clip-rule="evenodd"/>
  <path fill="#fff" fill-rule="evenodd" d="M8.57 12.07a.75.75 0 0 1 1.06 0l2.32 2.32 2.32-2.32a.75.75 0 0 1 1.06 1.06l-2.5 2.5a1.233 1.233 0 0 1-1.76 0l-2.5-2.5a.75.75 0 0 1 0-1.06Z" clip-rule="evenodd"/>
</svg>
